; Complex G-code file for edge case validation
; generated by PrusaSlicer 2.6.0 on 2026-03-17
; layer_height = 0.2
; first_layer_height = 0.3
N1 G21 ; set units to millimeters
N2 G90 ; use absolute coordinates
N3 M107 ; start with fan off
G1 Z0.200 F7800.000 ; move to next layer (0)
G1 X86.840 Y81.250
G1 E2.00000 F2400.00000 ; unretract
G1 F1800.000
G1 X93.160 Y81.250 E2.19069 ; fill
G1 X93.160 Y87.571 E2.38138
G1 X86.840 Y87.571 E2.57207
G1 X86.840 Y81.385 E2.75836
G10 ; retract
G1 Z0.500 ; lift Z
M117 Printing... ; set message
G4 P500 ; wait 500ms
M104 S210 ; set extruder temp
M140 S60 ; set bed temp
; empty line below

M106 S255 ; fan on full
N4 G0 X0 Y0 ; home
N5 G1 X100 Y100 Z10 E10 F3000 ; multi-word block
; comment only block
; another comment with unusual characters: !@#$%^&*()_+
N6 G1 X-10.5 Y+20.5 Z.5 E.001 ; signed values and omitted leading zero
N7 G1 X10. Y20. ; trailing decimal point
M0 ; stop
